X: 1
T: Smedens f\orsta hopsa
O: efter B\orge Christensen/Thorkild Knudsen
B: "Foklemusikhus Spillebog"
M: 2/4
L: 1/8
K: G
V: 1 ach=0
|: "G"GB dg |    b2 g2 |  gf/g/ ag |"C"Tf2 e2 \
|  "D"AB cd |    ed cA |1 "G"GB dg |    b2 g2 :|2 "G"G2 g2 | g2 z2 ||
|: "D"dd ed | "G"B2 G2 |  GF/G/ AG | "C"TF2 E2 \
|  "D"AB cd |    ed cA |1 "G"GB dg |    b2 g2 :|2 "G"G2 g2 | g2 z2 |]
V: 2
|: "G"[DG,]G Bd | g2 d2 |  BA/B/ cB |"C"Td2 c2 \
|  "D"FG AB |     cB AF |1 "G"[DG,]G Bd | g2 d2 :|2 "G"[D2G,2] G2 | G2 z2 ||
|: "D"BB cB |  "G"G2 D2 |  BA/B/ cB |"C"Td2 c2 \
|  "D"FG AB |     cB AF |1 "G"[DG,]G Bd | g2 d2 :|2 "G"[D2G,2] G2 | G2 z2 ||
